X:1
T:Hayes, LMD
T:Hayes, LMD
T:From Ludwig van Beethoven, 1799
T:Public Domain Courtesy of the Cyber Hymnal™
C:From Ludwig van Beethoven, 1799
Z:Public Domain
Z:Courtesy of the Cyber Hymnal™
%%score ( 1 2 ) ( 3 4 )
L:1/8
Q:1/4=110
M:4/4
K:F
V:1 treble 
V:2 treble 
V:3 bass 
V:4 bass 
V:1
 C2 | [CF]2 [CE]2 [CF]2 [CG]2 | [FA]2 [GB]2 [EG]2 [Ec]2 | [Fc]2 [Ec]2 [Fc]2 [G^c]2 | %4
 [Fd]2 [Fd]2 [EG]2- [EG]2 | C2 [CF]2 [CE]2 [CF]2 | [CG]2 [CA]2 [F=B]2 [Ec]2 | %7
 [Gc]2 [Ad]2 [A^d]2 [Ge]2 | [Ge]2 [Gf]2 [Fd]2 [Ec]2- | [Ec]2 [Cc]2 [Fc]2 [EB]2 | %10
 [FA]2 [FA]2 [Ff]2 [F_e]2 | [Fd]2 [Fd]2 [Fd]2 [^Fc]2 | [GB]2 [^FA]2 G2 [D=F]2 | E4 C2 [CF]2 | %14
 [CE]2 [CF]2 [CG]2 [FA]2 | [GB]2 [EG]2 [Ec]2 [Fc]2 | [^Fc]2 [Gc]2 [GB]2 [=FA]2 | [EG]2 F4 |] %18
V:2
 C2 | x8 | x8 | x8 | x8 | C2 x6 | x8 | x8 | x8 | x8 | x8 | x8 | x4 G2 x2 | E4 C2 x2 | x8 | x8 | %16
 x8 | x2 F4 |] %18
V:3
 [C,C]2 | [F,A,]2 [G,B,]2 A,2 [E,C]2 | [F,C]2 [B,,D]2 [C,C]2 [B,C]2 | %3
 [A,C]2 [G,B,]2 [F,A,]2 [E,A,]2 | [D,A,]2 [B,,D]2 [C,C]2- [C,C]2 | [C,C]2 [F,A,]2 [G,B,]2 A,2 | %6
 [E,B,]2 [F,A,]2 [D,F,]2 [C,G,]2 | [E,C]2 [F,C]2 [^F,C]2 [G,C]2 | [G,C]2 [G,=B,]2 [G,B,]2 [C,C]2- | %9
 [C,C]2 [C,C]2 [A,C]2 [G,C]2 | [F,C]2 [_E,C]2 [D,B,]2 [C,A,]2 | [B,,B,]2 [B,,B,]2 [B,D]2 [A,D]2 | %12
 [G,D]2 [A,C]2 [B,D]2 [=B,D]2 | C4 [C,C]2 [F,A,]2 | [G,B,]2 A,2 [E,C]2 [F,C]2 | %15
 [B,,D]2 [C,C]2 [B,C]2 [A,C]2 | [A,_E]2 [B,D]2 [G,D]2 C2 | [C,B,]2 [F,A,]4 |] %18
V:4
 x2 | x4 A,2 x2 | x8 | x8 | x8 | x6 A,2 | x8 | x8 | x8 | x8 | x8 | x8 | x8 | C4 x4 | x2 A,2 x4 | %15
 x8 | x6 C2 | x6 |] %18

